core/img/actions/checkmark-success.svg

<svg width="41" height="41" viewBox="0 0 41 41" fill="none" xmlns="http://www.w3.org/2000/svg">
<path d="M41 20.25C41 31.4297 31.9297 40.5 20.75 40.5C9.57029 40.5 0.5 31.4297 0.5 20.25C0.5 9.07031 9.57029 0 20.75 0C31.9297 0 41 9.07031 41 20.25ZM27.0359 14.1609L18.5 22.6969L14.464 18.6609C13.5922 17.775 12.1578 17.775 11.2859 18.6609C10.4 19.5328 10.4 20.9672 11.2859 21.8391L16.9109 27.4641C17.7828 28.35 19.2172 28.35 20.089 27.4641L30.214 17.3391C31.1 16.4672 31.1 15.0328 30.214 14.1609C29.3422 13.275 27.9078 13.275 27.0359 14.1609Z" fill="#00B13C"/>
</svg>

<svg version="1.2" xmlns="http://www.w3.org/2000/svg" viewBox="0 0 41 41" width="16" height="16"><style>.a{fill:#00b13c}</style><path fill-rule="evenodd" class="a" d="m41 20.3c0 11.1-9.1 20.2-20.3 20.2-11.1 0-20.2-9.1-20.2-20.3 0-11.1 9.1-20.2 20.3-20.2 11.1 0 20.2 9.1 20.2 20.3zm-14-6.1l-8.5 8.5-4-4c-0.9-0.9-2.3-0.9-3.2 0-0.9 0.8-0.9 2.3 0 3.1l5.6 5.7c0.9 0.9 2.3 0.9 3.2 0l10.1-10.2c0.9-0.8 0.9-2.3 0-3.1-0.9-0.9-2.3-0.9-3.2 0z"/></svg>
